!!!OTL: 254. Kreistanz mit Nachahmung. / Anderes Liedchen.
!!!ARE: Europa, Mitteleuropa, Deutschland
!!!SCT: K2254A
!!!TXL: @@DE
!!!YEM: Copyright 1995, estate of Helmut Schaffrath.
**kern	**text
*clefG2	*
*M2/4	*
*k[]	*
*C:	*
=1	=1
{8c	Al-
8d	-le
8e	mei-
8f	-ne
=2	=2
4g	Ent-
4g}	-chen,
=3	=3
{8a	ſchwim-
8a	-men
8a	auf
8a	der
=4	=4
4g	See,
4r}	.
=5	=5
{8a	ſchwim-
8a	-men
8a	auf
8a	der
=6	=6
4g	See,
4r}	.
=7	=7
{8f	Köpf-
8f	-chen
8f	in
8f	dem
=8	=8
4e	Waſ-
4e}	-ſer.
=9	=9
{8d	Bein-
8d	-chen
8d	in
8d	die
=10	=10
4c	Höh'.
4r}	.
==	==
!!!AGN: Kinder - Lied, Reigen, Tanz, Nachahmungs - Spiel
!!!ONB: ESAC (Essen Associative Code) Database: KINDER
!!!AMT: simple duple
!!!AIN: vox
!!!EED: Helmut Schaffrath
!!!EEV: 1.0
!!!GTL: Zweites Buch. Kinderspiel: 2. Reigen und Tanzspiele. / E. Reigenspiele mit Nachahmungen.
!!@@COMMENT:"Die Kinder bilden einen Kreis und fingen. - Beim andern Liedchen, mit dem erſten verbunden, werden die dem Texte entſprechenden Bewegungen gemacht. 
!!Letʒteres wurde im Nafſauiſchen als "Kegeljungenliedchen" gehört, wenn "alle Neune" getroffen waren. - Vom ʒweiten Texte eine Variante aus Kaſſel ſ. oben Nr. 645."
!!@@END:
!!!URL-scan: https://archive.org/details/DeutschesKinderliedUndKinderspiel/page/502/mode/1up
!!!ENC: Anna Maria Matuszewska
!!!EEV: 2024/04/09
*-	*-
